X:5110
T:The Mad Road
M:6/8
R:Jig
L:1/8
Q:180
C:Aidan Crossey
K:D
|:AFE DEF|AFE DEF|E2e e2f|gfe dcB|
AFE DEF|AFE DEF|GAB g2f|eBd e3:||
|:B2e efe|B2f gfe|A2d dcd|fed ded|
B2e efe|B2f gfe|d2B BAG|FGF E3:||
